X:56
T: Dorogoy Dal'noyu #2
O:russia
Z: John Chambers <jc@trillian.mit.edu> http://trillian.mit.edu/~jc/music/
M: C|
L: 1/8
K: Dm
| "Dm"ddef gfed \
| fd3- d4 \
| "D7"AABc dABA \
| "Gm"G8 \
| "Dm"ddef gfed \
| fd3- d4 |
| "E7"eeef e=B^cd \
| "A7"e8 \
| z2Hf2 Hf2He2 \
|: "Dm"e2dd- dd"D7"dc \
| "Gm"c2BB- BGAB \
| "C7"c3d edcB |
| "F"A8 zF"(D7)"GA \
| "Gm"c2BB- BBcd \
| "Dm"g2ff- fdef \
| "A7"a3g fed^c \
|1 "Dm"d2f2 "A7"f2e2 \
:|2 "Dm"d8 |]
%%sep 5 5 5cm
